src/pos-icons/sword-cross.svg

<svg height="24" viewBox="0 0 24 24" width="24" xmlns="http://www.w3.org/2000/svg"><path d="m6.2 2.44 11.9 11.9 2.12-2.12 1.41 1.41-2.47 2.47 3.18 3.18c.39.39.39 1.02 0 1.41l-.71.71c-.39.39-1.02.39-1.41 0l-3.22-3.17-2.44 2.47-1.41-1.41 2.12-2.12-11.9-11.9v-2.83zm9.69 7.56 4.74-4.74v-2.82h-2.83l-4.74 4.74zm-4.95 5-2.83-2.87-2.21 2.21-2.12-2.12-1.41 1.41 2.47 2.47-3.18 3.19c-.39.39-.39 1.02 0 1.41l.71.71c.39.39 1.02.39 1.41 0l3.22-3.18 2.44 2.47 1.41-1.41-2.12-2.12z"/></svg>

<?xml version="1.0" encoding="UTF-8"?><!DOCTYPE svg PUBLIC "-//W3C//DTD SVG 1.1//EN" "http://www.w3.org/Graphics/SVG/1.1/DTD/svg11.dtd"><svg xmlns="http://www.w3.org/2000/svg" xmlns:xlink="http://www.w3.org/1999/xlink" version="1.1" id="mdi-sword-cross" width="24" height="24" viewBox="0 0 24 24"><path d="M6.2,2.44L18.1,14.34L20.22,12.22L21.63,13.63L19.16,16.1L22.34,19.28C22.73,19.67 22.73,20.3 22.34,20.69L21.63,21.4C21.24,21.79 20.61,21.79 20.22,21.4L17,18.23L14.56,20.7L13.15,19.29L15.27,17.17L3.37,5.27V2.44H6.2M15.89,10L20.63,5.26V2.44H17.8L13.06,7.18L15.89,10M10.94,15L8.11,12.13L5.9,14.34L3.78,12.22L2.37,13.63L4.84,16.1L1.66,19.29C1.27,19.68 1.27,20.31 1.66,20.7L2.37,21.41C2.76,21.8 3.39,21.8 3.78,21.41L7,18.23L9.44,20.7L10.85,19.29L8.73,17.17L10.94,15Z" /></svg>
